icons/ax.svg

<?xml version="1.0" ?>
<svg xmlns="http://www.w3.org/2000/svg" xmlns:ev="http://www.w3.org/2001/xml-events" xmlns:xlink="http://www.w3.org/1999/xlink" baseProfile="full" height="415px" version="1.1" viewBox="-1031.5220000000002 877.978 12303.044 8493.044" width="600px">
	<defs/>
	<path d="M 665.0,8639.0 C 583.0,8629.0 506.0,8621.0 495.0,8621.0 C 469.0,8620.0 244.0,8433.0 206.0,8381.0 C 185.0,8353.0 163.0,8336.0 128.0,8323.0 C 79.0,8306.0 77.0,8302.0 65.0,8240.0 C 61.0,8221.0 44.0,8191.0 28.0,8173.0 L -2.0,8142.0 L 39.0,8082.0 C 76.0,8028.0 80.0,8015.0 80.0,7962.0 L 80.0,7903.0 L 188.0,7853.0 L 296.0,7802.0 L 324.0,7706.0 C 340.0,7653.0 354.0,7610.0 355.0,7610.0 C 365.0,7610.0 597.0,7703.0 603.0,7710.0 C 608.0,7714.0 607.0,7746.0 602.0,7781.0 C 592.0,7843.0 593.0,7846.0 618.0,7873.0 C 640.0,7896.0 652.0,7900.0 696.0,7900.0 L 748.0,7900.0 L 787.0,7997.0 C 808.0,8050.0 832.0,8097.0 840.0,8101.0 C 848.0,8106.0 889.0,8117.0 931.0,8125.0 L 1007.0,8141.0 L 1066.0,8217.0 C 1145.0,8320.0 1143.0,8314.0 1135.0,8380.0 L 1128.0,8439.0 L 1066.0,8460.0 C 1013.0,8477.0 992.0,8492.0 915.0,8570.0 C 866.0,8620.0 823.0,8659.0 820.0,8659.0 C 817.0,8658.0 748.0,8649.0 665.0,8639.0" fill="pink"/>
	<path d="M 2276.0,7760.0 L 2167.0,7731.0 L 2086.0,7651.0 L 2005.0,7570.0 L 2054.0,7521.0 L 2102.0,7473.0 L 2035.0,7455.0 C 1983.0,7441.0 1940.0,7417.0 1837.0,7345.0 C 1764.0,7295.0 1685.0,7242.0 1660.0,7227.0 L 1614.0,7201.0 L 1525.0,7260.0 L 1436.0,7319.0 L 1403.0,7300.0 C 1385.0,7289.0 1354.0,7271.0 1336.0,7260.0 L 1301.0,7239.0 L 1261.0,7260.0 L 1220.0,7280.0 L 1160.0,7250.0 L 1101.0,7220.0 L 1119.0,7178.0 C 1129.0,7154.0 1152.0,7104.0 1169.0,7066.0 L 1200.0,6998.0 L 1244.0,7034.0 C 1269.0,7054.0 1293.0,7070.0 1299.0,7070.0 C 1306.0,7070.0 1344.0,7045.0 1385.0,7014.0 C 1449.0,6966.0 1459.0,6954.0 1465.0,6920.0 C 1471.0,6884.0 1474.0,6881.0 1513.0,6875.0 C 1592.0,6863.0 1592.0,6863.0 1585.0,6817.0 C 1581.0,6794.0 1573.0,6772.0 1568.0,6769.0 C 1562.0,6765.0 1513.0,6759.0 1459.0,6755.0 C 1404.0,6752.0 1360.0,6746.0 1360.0,6744.0 C 1360.0,6735.0 1473.0,6570.0 1480.0,6570.0 C 1483.0,6570.0 1526.0,6583.0 1574.0,6600.0 C 1653.0,6626.0 1677.0,6641.0 1834.0,6764.0 L 2007.0,6898.0 L 2246.0,6909.0 C 2534.0,6922.0 2520.0,6922.0 2520.0,6911.0 C 2520.0,6906.0 2495.0,6868.0 2463.0,6826.0 L 2407.0,6750.0 L 2318.0,6750.0 L 2230.0,6750.0 L 1912.0,6591.0 L 1593.0,6432.0 L 1555.0,6326.0 C 1535.0,6267.0 1514.0,6218.0 1510.0,6215.0 C 1506.0,6213.0 1478.0,6208.0 1448.0,6204.0 C 1398.0,6198.0 1385.0,6202.0 1260.0,6255.0 C 1186.0,6287.0 1124.0,6313.0 1124.0,6314.0 C 1123.0,6314.0 1119.0,6363.0 1115.0,6422.0 L 1108.0,6528.0 L 1154.0,6535.0 C 1201.0,6542.0 1202.0,6544.0 1215.0,6608.0 C 1221.0,6639.0 1217.0,6646.0 1153.0,6713.0 L 1084.0,6785.0 L 1066.0,6910.0 C 1043.0,7069.0 1008.0,7155.0 938.0,7226.0 L 888.0,7278.0 L 908.0,7364.0 C 930.0,7460.0 930.0,7460.0 860.0,7435.0 C 837.0,7427.0 814.0,7420.0 810.0,7420.0 C 807.0,7420.0 793.0,7443.0 780.0,7471.0 C 767.0,7499.0 753.0,7523.0 748.0,7526.0 C 744.0,7529.0 649.0,7487.0 537.0,7434.0 L 333.0,7338.0 L 315.0,7261.0 C 300.0,7195.0 281.0,7159.0 178.0,6995.0 L 58.0,6806.0 L 66.0,6755.0 C 75.0,6708.0 77.0,6705.0 107.0,6702.0 C 131.0,6700.0 148.0,6689.0 167.0,6663.0 L 194.0,6628.0 L 176.0,6465.0 C 166.0,6375.0 161.0,6297.0 164.0,6291.0 C 168.0,6286.0 207.0,6262.0 251.0,6238.0 C 324.0,6198.0 330.0,6193.0 324.0,6170.0 C 314.0,6133.0 315.0,6127.0 365.0,5967.0 C 409.0,5827.0 411.0,5815.0 402.0,5762.0 L 392.0,5705.0 L 526.0,5570.0 C 600.0,5496.0 660.0,5429.0 660.0,5422.0 C 660.0,5415.0 631.0,5351.0 595.0,5280.0 L 530.0,5151.0 L 569.0,5042.0 L 609.0,4932.0 L 589.0,4785.0 C 578.0,4704.0 571.0,4636.0 573.0,4634.0 C 575.0,4632.0 685.0,4627.0 817.0,4623.0 L 1058.0,4617.0 L 1276.0,4399.0 L 1495.0,4180.0 L 1536.0,4221.0 C 1572.0,4256.0 1585.0,4262.0 1647.0,4272.0 L 1716.0,4282.0 L 1794.0,4371.0 L 1872.0,4460.0 L 1950.0,4460.0 L 2028.0,4460.0 L 2035.0,4409.0 C 2039.0,4381.0 2060.0,4305.0 2081.0,4242.0 C 2109.0,4157.0 2120.0,4109.0 2120.0,4065.0 L 2120.0,4004.0 L 2062.0,3976.0 L 2005.0,3949.0 L 1917.0,3781.0 L 1830.0,3613.0 L 1878.0,3496.0 C 1921.0,3392.0 1938.0,3366.0 2025.0,3259.0 C 2080.0,3194.0 2127.0,3140.0 2130.0,3140.0 C 2133.0,3140.0 2181.0,3153.0 2238.0,3169.0 L 2340.0,3197.0 L 2340.0,3139.0 L 2340.0,3081.0 L 2285.0,3064.0 C 2255.0,3054.0 2230.0,3044.0 2230.0,3041.0 C 2230.0,3038.0 2268.0,2992.0 2315.0,2940.0 C 2362.0,2888.0 2448.0,2775.0 2506.0,2690.0 C 2565.0,2605.0 2614.0,2534.0 2616.0,2532.0 C 2617.0,2530.0 2706.0,2546.0 2814.0,2568.0 C 2922.0,2590.0 3012.0,2604.0 3014.0,2601.0 C 3016.0,2598.0 3038.0,2531.0 3064.0,2453.0 L 3111.0,2312.0 L 3148.0,2303.0 C 3177.0,2296.0 3193.0,2283.0 3223.0,2240.0 C 3244.0,2210.0 3266.0,2185.0 3271.0,2185.0 C 3276.0,2185.0 3310.0,2209.0 3345.0,2239.0 L 3410.0,2293.0 L 3410.0,2449.0 C 3410.0,2575.0 3406.0,2619.0 3390.0,2675.0 C 3375.0,2729.0 3373.0,2746.0 3383.0,2752.0 C 3389.0,2757.0 3429.0,2779.0 3471.0,2802.0 C 3545.0,2843.0 3548.0,2846.0 3588.0,2924.0 C 3611.0,2969.0 3641.0,3026.0 3656.0,3052.0 L 3683.0,3100.0 L 3665.0,3140.0 L 3647.0,3180.0 L 3675.0,3220.0 L 3703.0,3260.0 L 3675.0,3463.0 C 3649.0,3651.0 3644.0,3673.0 3598.0,3785.0 C 3571.0,3851.0 3522.0,3946.0 3489.0,3996.0 L 3429.0,4087.0 L 3468.0,4186.0 L 3508.0,4285.0 L 3478.0,4323.0 L 3448.0,4361.0 L 3521.0,4515.0 C 3561.0,4600.0 3595.0,4668.0 3596.0,4667.0 C 3598.0,4665.0 3595.0,4628.0 3590.0,4584.0 C 3582.0,4509.0 3584.0,4495.0 3631.0,4286.0 C 3660.0,4154.0 3680.0,4043.0 3680.0,4006.0 L 3680.0,3945.0 L 3786.0,3890.0 C 3891.0,3835.0 3892.0,3835.0 3961.0,3738.0 C 3999.0,3685.0 4030.0,3638.0 4030.0,3634.0 C 4030.0,3630.0 4010.0,3594.0 3985.0,3554.0 C 3944.0,3489.0 3940.0,3476.0 3940.0,3421.0 C 3940.0,3388.0 3942.0,3360.0 3945.0,3360.0 C 3947.0,3360.0 3974.0,3372.0 4004.0,3386.0 C 4046.0,3407.0 4064.0,3424.0 4086.0,3462.0 C 4114.0,3509.0 4226.0,3603.0 4255.0,3603.0 C 4282.0,3603.0 4450.0,3493.0 4507.0,3437.0 L 4568.0,3377.0 L 4619.0,3395.0 L 4669.0,3414.0 L 4717.0,3531.0 L 4765.0,3649.0 L 4835.0,3680.0 L 4905.0,3711.0 L 4963.0,3691.0 L 5021.0,3671.0 L 5052.0,3720.0 L 5082.0,3768.0 L 5168.0,3775.0 C 5216.0,3778.0 5272.0,3783.0 5293.0,3786.0 L 5330.0,3792.0 L 5330.0,3732.0 L 5330.0,3672.0 L 5235.0,3654.0 C 5183.0,3644.0 5140.0,3634.0 5140.0,3631.0 C 5140.0,3628.0 5162.0,3551.0 5189.0,3460.0 L 5237.0,3296.0 L 5264.0,3338.0 C 5278.0,3361.0 5292.0,3380.0 5294.0,3380.0 C 5296.0,3380.0 5305.0,3282.0 5315.0,3163.0 L 5333.0,2945.0 L 5378.0,2860.0 C 5403.0,2814.0 5437.0,2762.0 5453.0,2745.0 C 5469.0,2729.0 5489.0,2699.0 5497.0,2680.0 C 5506.0,2661.0 5536.0,2618.0 5565.0,2584.0 C 5608.0,2535.0 5660.0,2498.0 5827.0,2393.0 C 6104.0,2219.0 6169.0,2180.0 6180.0,2180.0 C 6185.0,2180.0 6206.0,2205.0 6227.0,2236.0 C 6256.0,2280.0 6268.0,2290.0 6284.0,2286.0 C 6320.0,2278.0 6503.0,2242.0 6540.0,2237.0 C 6571.0,2233.0 6583.0,2238.0 6635.0,2280.0 C 6703.0,2337.0 6679.0,2342.0 6853.0,2230.0 C 6944.0,2171.0 6972.0,2148.0 6979.0,2125.0 C 6985.0,2109.0 7007.0,2037.0 7030.0,1965.0 L 7071.0,1835.0 L 7130.0,1787.0 L 7189.0,1739.0 L 7250.0,1780.0 L 7310.0,1821.0 L 7270.0,1900.0 L 7230.0,1980.0 L 7314.0,2035.0 C 7360.0,2065.0 7407.0,2090.0 7417.0,2090.0 C 7428.0,2090.0 7461.0,2073.0 7491.0,2051.0 C 7533.0,2021.0 7579.0,1965.0 7698.0,1801.0 C 7783.0,1685.0 7854.0,1590.0 7856.0,1590.0 C 7865.0,1590.0 8008.0,1898.0 8029.0,1963.0 C 8042.0,2000.0 8057.0,2030.0 8063.0,2030.0 C 8070.0,2030.0 8131.0,2009.0 8200.0,1984.0 C 8316.0,1942.0 8329.0,1935.0 8386.0,1879.0 L 8447.0,1818.0 L 8506.0,1848.0 L 8565.0,1878.0 L 8577.0,1976.0 C 8588.0,2071.0 8590.0,2075.0 8627.0,2107.0 C 8648.0,2125.0 8668.0,2139.0 8673.0,2140.0 C 8677.0,2140.0 8680.0,2086.0 8680.0,2020.0 L 8680.0,1900.0 L 8839.0,1900.0 L 8998.0,1900.0 L 9050.0,1942.0 C 9146.0,2020.0 9133.0,2018.0 9196.0,1964.0 C 9302.0,1871.0 9290.0,1876.0 9367.0,1899.0 C 9404.0,1909.0 9473.0,1923.0 9520.0,1929.0 C 9624.0,1943.0 9666.0,1953.0 9662.0,1966.0 C 9660.0,1971.0 9630.0,2012.0 9595.0,2057.0 C 9543.0,2123.0 9530.0,2147.0 9530.0,2175.0 L 9530.0,2210.0 L 9596.0,2210.0 C 9636.0,2210.0 9708.0,2222.0 9782.0,2240.0 C 9848.0,2257.0 9904.0,2270.0 9905.0,2268.0 C 9906.0,2266.0 9919.0,2246.0 9934.0,2223.0 C 9948.0,2199.0 9966.0,2180.0 9973.0,2180.0 C 10009.0,2181.0 10072.0,2224.0 10124.0,2284.0 L 10182.0,2350.0 L 10212.0,2573.0 L 10242.0,2795.0 L 10224.0,2892.0 C 10215.0,2945.0 10204.0,2993.0 10201.0,2998.0 C 10198.0,3002.0 10161.0,3015.0 10120.0,3026.0 L 10046.0,3045.0 L 10006.0,3132.0 L 9967.0,3219.0 L 10015.0,3345.0 C 10062.0,3469.0 10063.0,3471.0 10054.0,3542.0 L 10045.0,3614.0 L 9954.0,3635.0 C 9904.0,3647.0 9806.0,3678.0 9736.0,3705.0 C 9654.0,3736.0 9606.0,3750.0 9602.0,3743.0 C 9598.0,3737.0 9562.0,3683.0 9522.0,3622.0 L 9449.0,3512.0 L 9484.0,3441.0 C 9504.0,3402.0 9520.0,3369.0 9520.0,3366.0 C 9520.0,3361.0 9477.0,3355.0 9389.0,3345.0 L 9333.0,3339.0 L 9285.0,3234.0 C 9259.0,3177.0 9233.0,3130.0 9228.0,3130.0 C 9224.0,3130.0 9180.0,3150.0 9132.0,3174.0 C 9046.0,3217.0 8970.0,3283.0 8970.0,3314.0 C 8970.0,3322.0 8967.0,3335.0 8964.0,3343.0 C 8960.0,3355.0 8972.0,3359.0 9021.0,3365.0 L 9082.0,3372.0 L 8989.0,3466.0 L 8895.0,3560.0 L 8819.0,3560.0 L 8743.0,3560.0 L 8695.0,3500.0 L 8647.0,3440.0 L 8622.0,3462.0 C 8591.0,3492.0 8584.0,3506.0 8576.0,3555.0 L 8570.0,3595.0 L 8705.0,3740.0 L 8840.0,3885.0 L 8840.0,3936.0 L 8840.0,3988.0 L 8911.0,4006.0 L 8982.0,4024.0 L 9012.0,4085.0 L 9042.0,4145.0 L 9006.0,4207.0 C 8986.0,4241.0 8970.0,4272.0 8970.0,4277.0 C 8970.0,4282.0 8990.0,4295.0 9015.0,4306.0 L 9060.0,4325.0 L 8890.0,4474.0 C 8797.0,4556.0 8661.0,4666.0 8588.0,4718.0 C 8477.0,4798.0 8438.0,4819.0 8345.0,4853.0 C 8245.0,4890.0 8225.0,4902.0 8125.0,4984.0 C 8065.0,5034.0 7974.0,5114.0 7924.0,5163.0 C 7836.0,5248.0 7829.0,5252.0 7756.0,5271.0 C 7680.0,5290.0 7680.0,5290.0 7641.0,5270.0 L 7601.0,5250.0 L 7443.0,5379.0 C 7356.0,5449.0 7188.0,5578.0 7070.0,5664.0 L 6855.0,5821.0 L 6755.0,5815.0 C 6700.0,5812.0 6634.0,5807.0 6608.0,5804.0 L 6561.0,5798.0 L 6529.0,5850.0 C 6500.0,5898.0 6489.0,5905.0 6358.0,5971.0 C 6249.0,6026.0 6194.0,6061.0 6111.0,6129.0 C 5976.0,6241.0 5802.0,6342.0 5679.0,6381.0 C 5608.0,6403.0 5550.0,6413.0 5440.0,6421.0 L 5295.0,6432.0 L 5235.0,6490.0 L 5175.0,6549.0 L 5031.0,6519.0 C 4900.0,6493.0 4879.0,6491.0 4806.0,6500.0 C 4762.0,6505.0 4721.0,6510.0 4715.0,6510.0 C 4709.0,6510.0 4687.0,6481.0 4667.0,6445.0 C 4646.0,6409.0 4627.0,6380.0 4624.0,6380.0 C 4622.0,6380.0 4586.0,6405.0 4546.0,6435.0 L 4472.0,6491.0 L 4501.0,6588.0 L 4531.0,6685.0 L 4474.0,6810.0 C 4415.0,6939.0 4375.0,6996.0 4265.0,7105.0 C 4142.0,7227.0 4128.0,7235.0 3966.0,7279.0 L 3819.0,7319.0 L 3740.0,7269.0 L 3661.0,7219.0 L 3573.0,7236.0 C 3471.0,7255.0 3470.0,7256.0 3366.0,7347.0 L 3288.0,7417.0 L 3141.0,7375.0 C 3061.0,7352.0 2974.0,7330.0 2948.0,7326.0 L 2900.0,7319.0 L 2900.0,7374.0 L 2900.0,7430.0 L 3005.0,7430.0 L 3111.0,7430.0 L 3141.0,7497.0 C 3166.0,7553.0 3170.0,7574.0 3168.0,7629.0 L 3165.0,7693.0 L 3061.0,7722.0 L 2957.0,7751.0 L 2897.0,7731.0 L 2838.0,7711.0 L 2731.0,7740.0 C 2635.0,7767.0 2476.0,7791.0 2410.0,7789.0 C 2396.0,7789.0 2336.0,7775.0 2276.0,7760.0" fill="pink"/>
</svg>

<?xml version="1.0" standalone="no"?>
<!DOCTYPE svg PUBLIC "-//W3C//DTD SVG 20010904//EN"
 "http://www.w3.org/TR/2001/REC-SVG-20010904/DTD/svg10.dtd">
<svg version="1.0" xmlns="http://www.w3.org/2000/svg"
 width="1024.000000pt" height="1024.000000pt" viewBox="0 0 1024.000000 1024.000000"
 preserveAspectRatio="xMidYMid meet">
<metadata>
Created by potrace 1.10, written by Peter Selinger 2001-2011
</metadata>
<g transform="translate(0.000000,1024.000000) scale(0.100000,-0.100000)"
fill="#000000" stroke="none">
<path d="M665 8639 c-82 -10 -159 -18 -170 -18 -26 -1 -251 -188 -289 -240
-21 -28 -43 -45 -78 -58 -49 -17 -51 -21 -63 -83 -4 -19 -21 -49 -37 -67 l-30
-31 41 -60 c37 -54 41 -67 41 -120 l0 -59 108 -50 108 -51 28 -96 c16 -53 30
-96 31 -96 10 0 242 93 248 100 5 4 4 36 -1 71 -10 62 -9 65 16 92 22 23 34
27 78 27 l52 0 39 97 c21 53 45 100 53 104 8 5 49 16 91 24 l76 16 59 76 c79
103 77 97 69 163 l-7 59 -62 21 c-53 17 -74 32 -151 110 -49 50 -92 89 -95 89
-3 -1 -72 -10 -155 -20z"/>
<path d="M2276 7760 l-109 -29 -81 -80 -81 -81 49 -49 48 -48 -67 -18 c-52
-14 -95 -38 -198 -110 -73 -50 -152 -103 -177 -118 l-46 -26 -89 59 -89 59
-33 -19 c-18 -11 -49 -29 -67 -40 l-35 -21 -40 21 -41 20 -60 -30 -59 -30 18
-42 c10 -24 33 -74 50 -112 l31 -68 44 36 c25 20 49 36 55 36 7 0 45 -25 86
-56 64 -48 74 -60 80 -94 6 -36 9 -39 48 -45 79 -12 79 -12 72 -58 -4 -23 -12
-45 -17 -48 -6 -4 -55 -10 -109 -14 -55 -3 -99 -9 -99 -11 0 -9 113 -174 120
-174 3 0 46 13 94 30 79 26 103 41 260 164 l173 134 239 11 c288 13 274 13
274 2 0 -5 -25 -43 -57 -85 l-56 -76 -89 0 -88 0 -318 -159 -319 -159 -38
-106 c-20 -59 -41 -108 -45 -111 -4 -2 -32 -7 -62 -11 -50 -6 -63 -2 -188 51
-74 32 -136 58 -136 59 -1 0 -5 49 -9 108 l-7 106 46 7 c47 7 48 9 61 73 6 31
2 38 -62 105 l-69 72 -18 125 c-23 159 -58 245 -128 316 l-50 52 20 86 c22 96
22 96 -48 71 -23 -8 -46 -15 -50 -15 -3 0 -17 23 -30 51 -13 28 -27 52 -32 55
-4 3 -99 -39 -211 -92 l-204 -96 -18 -77 c-15 -66 -34 -102 -137 -266 l-120
-189 8 -51 c9 -47 11 -50 41 -53 24 -2 41 -13 60 -39 l27 -35 -18 -163 c-10
-90 -15 -168 -12 -174 4 -5 43 -29 87 -53 73 -40 79 -45 73 -68 -10 -37 -9
-43 41 -203 44 -140 46 -152 37 -205 l-10 -57 134 -135 c74 -74 134 -141 134
-148 0 -7 -29 -71 -65 -142 l-65 -129 39 -109 40 -110 -20 -147 c-11 -81 -18
-149 -16 -151 2 -2 112 -7 244 -11 l241 -6 218 -218 219 -219 41 41 c36 35 49
41 111 51 l69 10 78 89 78 89 78 0 78 0 7 -51 c4 -28 25 -104 46 -167 28 -85
39 -133 39 -177 l0 -61 -58 -28 -57 -27 -88 -168 -87 -168 48 -117 c43 -104
60 -130 147 -237 55 -65 102 -119 105 -119 3 0 51 13 108 29 l102 28 0 -58 0
-58 -55 -17 c-30 -10 -55 -20 -55 -23 0 -3 38 -49 85 -101 47 -52 133 -165
191 -250 59 -85 108 -156 110 -158 1 -2 90 14 198 36 108 22 198 36 200 33 2
-3 24 -70 50 -148 l47 -141 37 -9 c29 -7 45 -20 75 -63 21 -30 43 -55 48 -55
5 0 39 24 74 54 l65 54 0 156 c0 126 -4 170 -20 226 -15 54 -17 71 -7 77 6 5
46 27 88 50 74 41 77 44 117 122 23 45 53 102 68 128 l27 48 -18 40 -18 40 28
40 28 40 -28 203 c-26 188 -31 210 -77 322 -27 66 -76 161 -109 211 l-60 91
39 99 40 99 -30 38 -30 38 73 154 c40 85 74 153 75 152 2 -2 -1 -39 -6 -83 -8
-75 -6 -89 41 -298 29 -132 49 -243 49 -280 l0 -61 106 -55 c105 -55 106 -55
175 -152 38 -53 69 -100 69 -104 0 -4 -20 -40 -45 -80 -41 -65 -45 -78 -45
-133 0 -33 2 -61 5 -61 2 0 29 12 59 26 42 21 60 38 82 76 28 47 140 141 169
141 27 0 195 -110 252 -166 l61 -60 51 18 50 19 48 117 48 118 70 31 70 31 58
-20 58 -20 31 49 30 48 86 7 c48 3 104 8 125 11 l37 6 0 -60 0 -60 -95 -18
c-52 -10 -95 -20 -95 -23 0 -3 22 -80 49 -171 l48 -164 27 42 c14 23 28 42 30
42 2 0 11 -98 21 -217 l18 -218 45 -85 c25 -46 59 -98 75 -115 16 -16 36 -46
44 -65 9 -19 39 -62 68 -96 43 -49 95 -86 262 -191 277 -174 342 -213 353
-213 5 0 26 25 47 56 29 44 41 54 57 50 36 -8 219 -44 256 -49 31 -4 43 1 95
43 68 57 44 62 218 -50 91 -59 119 -82 126 -105 6 -16 28 -88 51 -160 l41
-130 59 -48 59 -48 61 41 60 41 -40 79 -40 80 84 55 c46 30 93 55 103 55 11 0
44 -17 74 -39 42 -30 88 -86 207 -250 85 -116 156 -211 158 -211 9 0 152 308
173 373 13 37 28 67 34 67 7 0 68 -21 137 -46 116 -42 129 -49 186 -105 l61
-61 59 30 59 30 12 98 c11 95 13 99 50 131 21 18 41 32 46 33 4 0 7 -54 7
-120 l0 -120 159 0 159 0 52 42 c96 78 83 76 146 22 106 -93 94 -88 171 -65
37 10 106 24 153 30 104 14 146 24 142 37 -2 5 -32 46 -67 91 -52 66 -65 90
-65 118 l0 35 66 0 c40 0 112 12 186 30 66 17 122 30 123 28 1 -2 14 -22 29
-45 14 -24 32 -43 39 -43 36 1 99 44 151 104 l58 66 30 223 30 222 -18 97 c-9
53 -20 101 -23 106 -3 4 -40 17 -81 28 l-74 19 -40 87 -39 87 48 126 c47 124
48 126 39 197 l-9 72 -91 21 c-50 12 -148 43 -218 70 -82 31 -130 45 -134 38
-4 -6 -40 -60 -80 -121 l-73 -110 35 -71 c20 -39 36 -72 36 -75 0 -5 -43 -11
-131 -21 l-56 -6 -48 -105 c-26 -57 -52 -104 -57 -104 -4 0 -48 20 -96 44 -86
43 -162 109 -162 140 0 8 -3 21 -6 29 -4 12 8 16 57 22 l61 7 -93 94 -94 94
-76 0 -76 0 -48 -60 -48 -60 -25 22 c-31 30 -38 44 -46 93 l-6 40 135 145 135
145 0 51 0 52 71 18 71 18 30 61 30 60 -36 62 c-20 34 -36 65 -36 70 0 5 20
18 45 29 l45 19 -170 149 c-93 82 -229 192 -302 244 -111 80 -150 101 -243
135 -100 37 -120 49 -220 131 -60 50 -151 130 -201 179 -88 85 -95 89 -168
108 -76 19 -76 19 -115 -1 l-40 -20 -158 129 c-87 70 -255 199 -373 285 l-215
157 -100 -6 c-55 -3 -121 -8 -147 -11 l-47 -6 -32 52 c-29 48 -40 55 -171 121
-109 55 -164 90 -247 158 -135 112 -309 213 -432 252 -71 22 -129 32 -239 40
l-145 11 -60 58 -60 59 -144 -30 c-131 -26 -152 -28 -225 -19 -44 5 -85 10
-91 10 -6 0 -28 -29 -48 -65 -21 -36 -40 -65 -43 -65 -2 0 -38 25 -78 55 l-74
56 29 97 30 97 -57 125 c-59 129 -99 186 -209 295 -123 122 -137 130 -299 174
l-147 40 -79 -50 -79 -50 -88 17 c-102 19 -103 20 -207 111 l-78 70 -147 -42
c-80 -23 -167 -45 -193 -49 l-48 -7 0 55 0 56 105 0 106 0 30 67 c25 56 29 77
27 132 l-3 64 -104 29 -104 29 -60 -20 -59 -20 -107 29 c-96 27 -255 51 -321
49 -14 0 -74 -14 -134 -29z"/>
</g>
</svg>
